src/pos-icons/vuejs.svg

<svg height="24" viewBox="0 0 24 24" width="24" xmlns="http://www.w3.org/2000/svg"><path d="m2 3h3.5l6.5 12 6.5-12h3.5l-10 18zm4.5 0h3l2.5 4.58 2.5-4.58h3l-5.5 10.08z"/></svg>

<?xml version="1.0" encoding="UTF-8"?><!DOCTYPE svg PUBLIC "-//W3C//DTD SVG 1.1//EN" "http://www.w3.org/Graphics/SVG/1.1/DTD/svg11.dtd"><svg xmlns="http://www.w3.org/2000/svg" xmlns:xlink="http://www.w3.org/1999/xlink" version="1.1" id="mdi-vuejs" width="24" height="24" viewBox="0 0 24 24"><path d="M2,3H5.5L12,15L18.5,3H22L12,21L2,3M6.5,3H9.5L12,7.58L14.5,3H17.5L12,13.08L6.5,3Z" /></svg>
